modules/map-icons/icons/real-estate-agency.svg

<svg version="1.2" baseProfile="tiny" xmlns="http://www.w3.org/2000/svg" width="50" height="50" viewBox="0 0 50 50" overflow="inherit"><path d="M14.237 39.5h30.483v-26.081h-30.483v26.081zm15.489-23.485l10.99 9.598h-2.769v11.516h-6.436v-8.129h-4.065v8.129h-6.096v-11.516h-2.84l11.216-9.598zm-18.876-9.031v-5.966h-6.774v48.982h6.774v-39.967h35.226v-3.049z"/></svg>

<svg version="1.2" baseProfile="tiny" xmlns="http://www.w3.org/2000/svg" width="50" height="50" overflow="inherit"><path d="M14.237 39.5H44.72V13.419H14.237V39.5zm15.489-23.485l10.99 9.598h-2.769v11.516h-6.436V29h-4.065v8.129H21.35V25.613h-2.84l11.216-9.598zM10.85 6.984V1.018H4.076V50h6.774V10.033h35.226V6.984z"/></svg>
